src/icons/table.svg

<svg viewBox="0 0 24 24" xmlns="http://www.w3.org/2000/svg">
  <path
    d="M6 2H14L20 8V20C20 20.5304 19.7893 21.0391 19.4142 21.4142C19.0391 21.7893 18.5304 22 18 22H6C5.46957 22 4.96086 21.7893 4.58579 21.4142C4.21071 21.0391 4 20.5304 4 20V4C4 3.46957 4.21071 2.96086 4.58579 2.58579C4.96086 2.21071 5.46957 2 6 2ZM13 3.5V9H18.5L13 3.5ZM17 11H13V13H14L12 14.67L10 13H11V11H7V13H8L11 15.5L8 18H7V20H11V18H10L12 16.33L14 18H13V20H17V18H16L13 15.5L16 13H17V11Z"
    fill="#8BC34A"
  />
</svg>

<svg viewBox="0 0 24 24" xmlns="http://www.w3.org/2000/svg">
  <path
    d="M6 2h8l6 6v12a2 2 0 0 1-2 2H6a2 2 0 0 1-2-2V4a2 2 0 0 1 2-2m7 1.5V9h5.5L13 3.5m4 7.5h-4v2h1l-2 1.67L10 13h1v-2H7v2h1l3 2.5L8 18H7v2h4v-2h-1l2-1.67L14 18h-1v2h4v-2h-1l-3-2.5 3-2.5h1v-2z"
    fill="#8bc34a"
  />
</svg>
